X:3
T: Saxer Mazurka CF (5letras transposed)
M:3/4
L:1/8
K:C transpose=3 %%MIDI gchordon
"C"C2EGc2 | "G7"D2FGB2 | ag fG Bd | "C"ag eGc2 | C2EGc2 | "G7"D2FGB2 | ag fG AB | "C"c2c2z2 :: 
"G7"fe dc' ba | "C"g2eGc2 | "G7"g2fGB2 | "C"g2eGc2 | "G7"fe dc' ba | "C"g2eGc2 | "G7"g2fG Bd | "C"c2c2z2 :| [K:F] 
"F"a2gf ed | c2FA cf | "C7"e2GB eg | "F"f2FA cf | a2gf ed | c2FA cf | "C7"e2GB eg | "F"f2f2z2 |] 

